X:166
T:Welcome Whisky Back Again
R:Strathspey
C:Neil Gow
S:MacDonald - The Skye Collection
N:pg.136
M:C
L:1/8
K:B_
B,d c>Bcd|BcGB F>D C2|B,d c>Bc>d|B<F GD B,2:|
d<f f>g f>dc>B|d<f f>g f<d c2|B<f f>g f<dc>d|B<F Gg f<dc>B|
d<f f>g fdc>e|d<fc<e B>cd>c|B>F G<B FD B,2||
